src/assets/warning-icon.svg

<svg width="24" height="24" viewBox="0 0 24 24" fill="none" xmlns="http://www.w3.org/2000/svg">
<g clip-path="url(#clip0_6534_5507)">
<path d="M12 0C5.4 0 0 5.4 0 12C0 18.6 5.4 24 12 24C18.6 24 24 18.6 24 12C24 5.4 18.6 0 12 0ZM11.0571 5.14286H12.9429V14.5714H11.0571V5.14286ZM12 19.7143C11.3143 19.7143 10.7143 19.1143 10.7143 18.4286C10.7143 17.7429 11.3143 17.1429 12 17.1429C12.6857 17.1429 13.2857 17.7429 13.2857 18.4286C13.2857 19.1143 12.6857 19.7143 12 19.7143Z" fill="#FF8514"/>
</g>
<defs>
<clipPath id="clip0_6534_5507">
<rect width="24" height="24" fill="white"/>
</clipPath>
</defs>
</svg>

<svg xmlns="http://www.w3.org/2000/svg" width="24" height="24" fill="none"><g clip-path="url(#a)"><path fill="#FF8514" d="M12 0C5.4 0 0 5.4 0 12s5.4 12 12 12 12-5.4 12-12S18.6 0 12 0m-.943 5.143h1.886v9.428h-1.886zM12 19.714c-.686 0-1.286-.6-1.286-1.285 0-.686.6-1.286 1.286-1.286s1.286.6 1.286 1.286c0 .685-.6 1.285-1.286 1.285"/></g><defs><clipPath id="a"><path fill="#fff" d="M0 0h24v24H0z"/></clipPath></defs></svg>
